X:1
T:Title
%%score [ ( 1 2 ) ( 3 4 ) ]
L:1/8
Q:1/4=240
M:4/4
K:Bb
V:1 treble nm="Midi_74"
V:2 treble 
V:3 bass nm="Midi_74"
V:4 bass 
V:1
 F8 | G4 A4 | B8 || c8 | d4 c2 B2 | B4 A4 |"^Richard Woodward\n(1744-77)" B8 |] %7
V:2
 D8 | E4 E4 | D8 || F8 | F4 E4 | D4 C4 | D8 |] %7
V:3
 B,8 | B,4 C4 | B,8 || A,8 | B,4 G,4 | F,4 F,4 | F,8 |] %7
V:4
 B,,8 | E,4 C,4 | G,8 || F,8 | B,4 E,4 | F,4 F,4 | B,,8 |] %7

